packages/icon-set-extra/svg/main/delivery-today.svg

<svg viewBox="0 0 24 24" xmlns="http://www.w3.org/2000/svg"><path d="m22 5h-2v2h2z"/><path d="m15 15h6v-2h-6a1 1 0 1 1 0-2h5v-2h-6a1 1 0 1 1 0-2h4v-2h-11a7 7 0 0 0 0 14h11v-2h-3a1 1 0 1 1 0-2zm-3-3a5 5 0 1 0 -10 0 5 5 0 0 0 10 0z" fill-rule="evenodd"/><path d="m21.5 9h2.5v2h-2.5zm0 8h-2.5v2h2.5z"/><path d="m7 12v-2.25h-1.5v3c0 .414.336.75.75.75h3v-1.5z" fill-rule="evenodd"/></svg>

<svg xmlns="http://www.w3.org/2000/svg" viewBox="0 0 24 24"><path d="M22 5h-2v2h2z"/><path fill-rule="evenodd" d="M15 15h6v-2h-6a1 1 0 1 1 0-2h5V9h-6a1 1 0 1 1 0-2h4V5H7a7 7 0 0 0 0 14h11v-2h-3a1 1 0 1 1 0-2zm-3-3a5 5 0 1 0-10 0 5 5 0 0 0 10 0z"/><path d="M21.5 9H24v2h-2.5zm0 8H19v2h2.5z"/><path fill-rule="evenodd" d="M7 12V9.75H5.5v3c0 .414.336.75.75.75h3V12z"/></svg>
